X:6
T:Hej och Paltbr\"od (Snoa)
%O:Sweden
R:Snoa
Z:Bob Wyttenbach 5/30/03 from Andrea Hoag for NFF 2003
M:2/4
L:1/8
%Q:1/4=96
K:A %Transposed from G
P:A
EA/A/ AE|AcA2|EA/A/ AE|cdB2|
d2d>c|cB B>A|GE FG|[1Ac/A/E2:|[2A2Ac||
P:B
e2e>f|ec Ac|e2ef|B3c|d2d>c|
cB B>A|GE FG|[1"3"Ac/A/ Ec:|[2A2Ac:|"Fine"A2A2|]
